svgs/sharp-regular/font.svg

<svg xmlns="http://www.w3.org/2000/svg" viewBox="0 0 448 512"><!--! Font Awesome Pro 6.6.0 by @fontawesome - https://fontawesome.com License - https://fontawesome.com/license (Commercial License) Copyright 2024 Fonticons, Inc. --><path d="M201.8 46.9L207.9 32l32.3 0 6.1 14.9L351.1 304l.9 0 0 2.1L403.4 432l20.6 0 24 0 0 48-24 0-112 0-24 0 0-48 24 0 39.5 0-32.7-80-189.8 0L96.5 432l39.5 0 24 0 0 48-24 0L24 480 0 480l0-48 24 0 20.6 0L96 306.1l0-2.1 .9 0L201.8 46.9zM148.7 304l150.6 0L224 119.5 148.7 304z"/></svg>

<svg xmlns="http://www.w3.org/2000/svg" viewBox="0 0 448 512"><!--! Font Awesome Pro 6.4.2 by @fontawesome - https://fontawesome.com License - https://fontawesome.com/license (Commercial License) Copyright 2023 Fonticons, Inc. --><path d="M201.8 46.9L207.9 32h32.3l6.1 14.9L351.1 304h.9v2.1L403.4 432H424h24v48H424 312 288V432h24 39.5l-32.7-80H129.1L96.5 432H136h24v48H136 24 0V432H24 44.6L96 306.1V304h.9L201.8 46.9zM148.7 304H299.3L224 119.5 148.7 304z"/></svg>
